icon/fa/kip-sign.svg

<svg xmlns="http://www.w3.org/2000/svg" viewBox="0 0 384 512"><!--! Font Awesome Free 6.1.2 by @fontawesome - https://fontawesome.com License - https://fontawesome.com/license/free (Icons: CC BY 4.0, Fonts: SIL OFL 1.1, Code: MIT License) Copyright 2022 Fonticons, Inc.--><path d="M182.5 224H352c17.7 0 32 14.3 32 32s-14.3 32-32 32H182.5l158.3 135.7c13.4 11.5 15 31.7 3.5 45.1-11.5 13.4-31.7 15-45.1 3.5L128 325.6V448c0 17.7-14.3 32-32 32-17.67 0-32-14.3-32-32V288H32c-17.67 0-32-14.3-32-32s14.33-32 32-32h32V64c0-17.67 14.33-32 32-32 17.7 0 32 14.33 32 32v122.4L299.2 39.7c13.4-11.5 33.6-9.94 45.1 3.48 11.5 13.41 9.9 33.62-3.5 45.12L182.5 224z"/></svg>

<svg xmlns="http://www.w3.org/2000/svg" viewBox="0 0 384 512" height="1em" width="1em">
<!--! Font Awesome Free 6.1.2 by @fontawesome - https://fontawesome.com License - https://fontawesome.com/license/free (Icons: CC BY 4.0, Fonts: SIL OFL 1.1, Code: MIT License) Copyright 2022 Fonticons, Inc.-->
  <path d="M182.5 224H352C369.7 224 384 238.3 384 256C384 273.7 369.7 288 352 288H182.5L340.8 423.7C354.2 435.2 355.8 455.4 344.3 468.8C332.8 482.2 312.6 483.8 299.2 472.3L128 325.6V448C128 465.7 113.7 480 96 480C78.33 480 64 465.7 64 448V288H32C14.33 288 0 273.7 0 256C0 238.3 14.33 224 32 224H64V64C64 46.33 78.33 32 96 32C113.7 32 128 46.33 128 64V186.4L299.2 39.7C312.6 28.2 332.8 29.76 344.3 43.18C355.8 56.59 354.2 76.8 340.8 88.3L182.5 224z"/>
</svg>
